X:187
T: SCHAETZCHEN REICH MIR DEINE HAND
N: E0771A
O: Europa, Mitteleuropa, Deutschland, Hessen, Unter - Taunus, Lahnkreis
R: Abschieds - Lied, Liebe
M: 4/4
L: 1/8
K: F
 | F2C2A2F2 | c2cBA2F2 |
d3cB2A2 | G2c2c4 |
G2B2B2A2 | c3GB2A2 |
F2d2cdcB | c2cBA4 |
G2B2B2A2 | c3GB2A2 |
F2d2cdcB | c2cBA4

